X:1
T:Title
%%score 1 { 2 | 3 }
L:1/8
Q:1/4=130
M:3/4
K:D
V:1 treble nm="Grand Piano, Soprano"
V:2 bass nm="Choir Pad, Bass"
V:3 bass 
V:1
 F2 D2 E2 | F2 G4 | G2 F4 | F2 E4 | E2 E2 G2 | F2 F4 | E2 E2 F2 | E2 D4 | z2 D2 D2 | D2 C4 | %10
w: By~William~Rosborough * *||||||||||
 C2 D4 | E2 F4 | F2 F2 A2 | A2 G4 | GE D4 | C2 D4 | z2 [DF]2 [DF]2 | [GB]2 [FA]4 | z2 [FA]2 [Fd]2 | %19
w: |||||||||
 [Ge]2 [Af]4 | z2 [GA]2 [Gc]2 | [Gd]2 [Ge]2 [Af]2 | [Ge]2 [Fd]4- | [Fd]2 [FA]4- | %24
w: |||||
 [FA]2 [FA]2 [FA]2 | [FA]2 [FA]4 | [A=c]2 [GB]2 [GB]2 | [GB]2 [GB]4 | [GB]2 [FA]2 .[Fd]2 | %29
w: |||||
 z [Ae] [Af]4 | [Fd]2 [Ec]2 [Fd]2 | [Ge]2 [Fd]4- | [Fd]4 z2 |] %33
w: ||||
V:2
 A,2 F,2 G,2 | A,2 B,4 | C2 D4 | A,2 B,4 | C2 C4 | D2 D2[K:bass] A,2 | A,2 G,2 A,2 | G,2 F,4 | %8
 z2 F,2 B,2 | B,2 ^A,4 | ^A,2 B,4 | C2 D4 | D2 D2 C2 | =C2[K:bass] B,4 | B,G, F,2 A,2 | G,2 F,4 | %16
 z2 A,2 A,2 | D2 D4 | z2 D2 A,2 | A,2 D4 | z2[K:treble] C2 E2 | D2 C2 C2 | C2 A,4- | A,2 D4- | %24
 D2 D2 D2 | D2 D4 | D2 D2 D2 | D2 D4 | D2 D2 .A,2 | z C D4 | A,2 A,2 A,2 | A,2 A,4- | A,4 z2 |] %33
V:3
 z2 D,,4- | D,,2 G,,4 | A,,2 D,,4 | F,,2 A,,4- | A,,2 A,,4- | A,,2 D,,4- | D,,2 A,,4- | A,,2 D,,4 | %8
 z2 B,,4- | B,,2 F,,4- | F,,2 B,,4 | A,,2 D,,4- | D,,2 D,,2 E,,2 | F,,2 G,,4- | G,,2 A,,4- | %15
 A,,2 D,,4 | z2 D,2 D,2 | D,2 D,4 | z2 D,2 D,2 | D,2 D,4 | z2 A,2 A,2 | A,2 A,2 A,2 | A,2 D,4- | %23
 D,2 D,4- | D,2 D,2 D,2 | D,2 D,4 | F,2 G,2 G,2 | G,2 G,4 | G,2 D,2 .D,2 | z A, D,4 | %30
 D,2 A,,2 A,,2 | A,,2 D,4- | D,4 z2 |] %33

